icon-svg/gardena.svg

<svg xmlns="http://www.w3.org/2000/svg" viewBox="0 0 24 24"><path fill="#44739e" d="M20.199 17.768v-7.326c1.061.8 1.721 2.002 1.741 3.722a4.55 4.55 0 0 1-1.321 3.323c-.16.18-.3.261-.421.281m0-8.327c.341.22.681.5 1.042.841.4.38.76.32.76-.381 0-1.121-.36-2.301-1.361-3.302a8 8 0 0 0-.44-.4v3.242Zm0-3.243v3.243c-.52-.32-1-.52-1.461-.62V5.358c.501.159.981.44 1.461.84m0 4.244v7.326c-.24.039-.38-.181-.4-.54-.04-1.462-.46-2.523-1.061-3.163v-.722a6.7 6.7 0 0 0 0-2.721v-.941c.54.2 1.041.46 1.461.761m-1.461 8.387c.44-1.061.38-2.143 0-3.203ZM16.375 8.16c.901 1.021 1.462 2.362 1.462 3.823s-.561 2.803-1.462 3.823Zm2.362-2.802c-.781-.281-1.561-.301-2.362-.12v1.441c.16.14.32.28.48.44a7.3 7.3 0 0 1 1.222 1.642c.2 0 .44.019.66.059Zm0 4.323v.94a4.8 4.8 0 0 0-.3-1.04c.1.04.2.06.3.1m0 3.662v.722l-.14-.14a5 5 0 0 0 .14-.582m0 2.283a9 9 0 0 0-.42-.92c-.3.72-.741 1.38-1.301 1.981a6 6 0 0 1-.641.601v4.143a4.9 4.9 0 0 0 1.301-.98c.5-.541.841-1.061 1.06-1.622ZM16.375 4.317V2.556c.461.22.881.54 1.222.881.5.48.28.8-.28.8-.341.02-.642.04-.942.08m-2.261 2.281a5.8 5.8 0 0 1 2.262 1.561v7.646a5.6 5.6 0 0 1-2.262 1.581Zm2.262-4.043v1.761c-1.001.16-1.761.501-2.262.981V2.075c.06 0 .12-.02.18-.02a4.6 4.6 0 0 1 2.082.5m0 2.683c-.48.1-.961.28-1.441.52a7.3 7.3 0 0 1 1.441.921Zm0 12.05a6 6 0 0 1-.941.66c.06.901-.34 1.981-1.321 3.102v.861c.1.02.18.02.3.02a4.65 4.65 0 0 0 1.961-.501v-4.142Zm-2.262 1.961v-.721c.12-.02.22-.06.32-.1-.08.28-.2.56-.32.821M11.992 6.198c.761 0 1.461.141 2.122.401v10.788a5.7 5.7 0 0 1-2.122.401 5.9 5.9 0 0 1-2.061-.381V6.558a5.9 5.9 0 0 1 2.061-.36m2.122-4.123v3.222c-.04.04-.06.08-.1.1a7.5 7.5 0 0 0-2.021-.28c-.721 0-1.402.1-2.062.3v-.6c.74-1.621 2.041-2.702 4.183-2.742m0 16.453v.721c-.721 1.601-2.022 2.642-4.183 2.702v-3.182c.06-.04.12-.101.16-.161a6.7 6.7 0 0 0 2.022.261c.701-.02 1.38-.121 2.001-.341m0 2.522a.5.5 0 0 1-.1.121c-.3.339-.3.66.1.74ZM9.93 2.856l.06-.06c.281-.321.301-.621-.06-.721Zm0 14.551a5.6 5.6 0 0 1-2.261-1.541V8.1c.6-.681 1.38-1.201 2.261-1.541Zm0-15.332a.9.9 0 0 0-.34-.02 4.7 4.7 0 0 0-1.921.461v4.123a5.6 5.6 0 0 1 .9-.62c-.059-.901.361-2.002 1.361-3.163Zm0 2.742v.601c-.08.04-.18.06-.26.099.08-.239.161-.48.26-.7m0 13.952v3.182h-.059a4.5 4.5 0 0 1-2.202-.501v-1.701c1-.16 1.761-.5 2.261-.98m-2.261.06c.5-.101 1-.301 1.501-.561a5.9 5.9 0 0 1-1.501-.94Zm0-2.963a5.7 5.7 0 0 1-1.522-3.884c0-1.481.581-2.842 1.522-3.883Zm0-13.35a4.8 4.8 0 0 0-1.341 1.001c-.481.52-.821 1.041-1.041 1.581V8.4c.1.28.24.561.38.861a7.1 7.1 0 0 1 1.301-1.982 11 11 0 0 1 .701-.64Zm0 14.812a4 4 0 0 1-.461-.381c-.5-.5-.921-1.041-1.241-1.621-.22 0-.44 0-.68-.06v3.443c.78.279 1.581.299 2.382.12Zm0 2.421v1.701a5.2 5.2 0 0 1-1.121-.8c-.501-.48-.301-.801.26-.821.3 0 .581-.04.861-.08m-2.382-5.324v-.921c.059.361.18.701.299 1.021a2 2 0 0 1-.299-.1m0-3.943v-.361l.059.06Zm0-5.384V8.4c-.421-1.101-.48-2.221 0-3.303m0 5.024c-.661-.62-1.121-1.681-1.222-3.202 0-.301-.1-.481-.26-.541v7.306c.441.301.921.56 1.482.741v-.921a7 7 0 0 1-.181-1.3 6.2 6.2 0 0 1 .181-1.722Zm0 5.144v3.443c-.501-.16-1.001-.461-1.482-.861v-3.182c.521.32 1.002.52 1.482.6M3.806 6.378v7.306c-1.081-.78-1.762-1.941-1.802-3.683-.059-1.401.501-2.522 1.261-3.342.221-.241.401-.321.541-.281m0 8.287a7 7 0 0 1-1.021-.8c-.42-.381-.781-.301-.761.379.02 1.122.401 2.302 1.422 3.283.119.121.24.221.36.321Z"/></svg>

<svg xmlns="http://www.w3.org/2000/svg" viewBox="0 0 24 24"><path d="M20.199 17.768V10.442C21.26 11.242 21.92 12.444 21.94 14.164A4.55 4.55 0 0 1 20.619 17.487C20.459 17.667 20.319 17.748 20.198 17.768M20.198 9.441C20.539 9.661 20.879 9.941 21.24 10.282 21.64 10.662 22 10.602 22 9.901 22 8.78 21.64 7.6 20.639 6.599A8 8 0 0 0 20.199 6.199V9.441ZM20.198 6.198V9.441C19.678 9.121 19.198 8.921 18.737 8.821V5.358C19.238 5.517 19.718 5.798 20.198 6.198M20.198 10.442V17.768C19.958 17.807 19.818 17.587 19.798 17.228 19.758 15.766 19.338 14.705 18.737 14.065V13.343A6.7 6.7 0 0 0 18.737 10.622V9.681C19.277 9.881 19.778 10.141 20.198 10.442M18.737 18.829C19.177 17.768 19.117 16.686 18.737 15.626ZM16.375 8.16C17.276 9.181 17.837 10.522 17.837 11.983S17.276 14.786 16.375 15.806ZM18.737 5.358C17.956 5.077 17.176 5.057 16.375 5.238V6.679C16.535 6.819 16.695 6.959 16.855 7.119A7.3 7.3 0 0 1 18.077 8.761C18.277 8.761 18.517 8.78 18.737 8.82ZM18.737 9.681V10.621A4.8 4.8 0 0 0 18.437 9.581C18.537 9.621 18.637 9.641 18.737 9.681M18.737 13.343V14.065L18.597 13.925A5 5 0 0 0 18.737 13.343M18.737 15.626A9 9 0 0 0 18.317 14.706C18.017 15.426 17.576 16.086 17.016 16.687A6 6 0 0 1 16.375 17.288V21.431A4.9 4.9 0 0 0 17.676 20.451C18.176 19.91 18.517 19.39 18.736 18.829ZM16.375 4.317V2.556C16.836 2.776 17.256 3.096 17.597 3.437 18.097 3.917 17.877 4.237 17.317 4.237 16.976 4.257 16.675 4.277 16.375 4.317M14.114 6.598A5.8 5.8 0 0 1 16.376 8.159V15.805A5.6 5.6 0 0 1 14.114 17.386ZM16.376 2.555V4.316C15.375 4.476 14.615 4.817 14.114 5.297V2.075C14.174 2.075 14.234 2.055 14.294 2.055A4.6 4.6 0 0 1 16.376 2.555M16.376 5.238C15.896 5.338 15.415 5.518 14.935 5.758A7.3 7.3 0 0 1 16.376 6.679ZM16.376 17.288A6 6 0 0 1 15.435 17.948C15.495 18.849 15.095 19.929 14.114 21.05V21.911C14.214 21.931 14.294 21.931 14.414 21.931A4.65 4.65 0 0 0 16.375 21.43V17.288ZM14.114 19.249V18.528C14.234 18.508 14.334 18.468 14.434 18.428 14.354 18.708 14.234 18.988 14.114 19.249M11.992 6.198C12.753 6.198 13.453 6.339 14.114 6.599V17.387A5.7 5.7 0 0 1 11.992 17.788 5.9 5.9 0 0 1 9.931 17.407V6.558A5.9 5.9 0 0 1 11.992 6.198M14.114 2.075V5.297C14.074 5.337 14.054 5.377 14.014 5.397A7.5 7.5 0 0 0 11.993 5.117C11.272 5.117 10.591 5.217 9.931 5.417V4.817C10.671 3.196 11.972 2.115 14.114 2.075M14.114 18.528V19.249C13.393 20.85 12.092 21.891 9.931 21.951V18.769C9.991 18.729 10.051 18.668 10.091 18.608A6.7 6.7 0 0 0 12.113 18.869C12.814 18.849 13.493 18.748 14.114 18.528M14.114 21.05A0.5 0.5 0 0 1 14.014 21.171C13.714 21.51 13.714 21.831 14.114 21.911ZM9.93 2.856L9.99 2.796C10.271 2.475 10.291 2.175 9.93 2.075ZM9.93 17.407A5.6 5.6 0 0 1 7.669 15.866V8.1C8.269 7.419 9.049 6.899 9.93 6.559ZM9.93 2.075A0.9 0.9 0 0 0 9.59 2.055 4.7 4.7 0 0 0 7.669 2.516V6.639A5.6 5.6 0 0 1 8.569 6.019C8.51 5.118 8.93 4.017 9.93 2.856ZM9.93 4.817V5.418C9.85 5.458 9.75 5.478 9.67 5.517 9.75 5.278 9.831 5.037 9.93 4.817M9.93 18.769V21.951H9.871A4.5 4.5 0 0 1 7.669 21.45V19.749C8.669 19.589 9.43 19.249 9.93 18.769M7.669 18.829C8.169 18.728 8.669 18.528 9.17 18.268A5.9 5.9 0 0 1 7.669 17.328ZM7.669 15.866A5.7 5.7 0 0 1 6.147 11.982C6.147 10.501 6.728 9.14 7.669 8.099ZM7.669 2.516A4.8 4.8 0 0 0 6.328 3.517C5.847 4.037 5.507 4.558 5.287 5.098V8.4C5.387 8.68 5.527 8.961 5.667 9.261A7.1 7.1 0 0 1 6.968 7.279 11 11 0 0 1 7.669 6.639ZM7.669 17.328A4 4 0 0 1 7.208 16.947C6.708 16.447 6.287 15.906 5.967 15.326 5.747 15.326 5.527 15.326 5.287 15.266V18.709C6.067 18.988 6.868 19.008 7.669 18.829ZM7.669 19.749V21.45A5.2 5.2 0 0 1 6.548 20.65C6.047 20.17 6.247 19.849 6.808 19.829 7.108 19.829 7.389 19.789 7.669 19.749M5.287 14.425V13.504C5.346 13.865 5.467 14.205 5.586 14.525A2 2 0 0 1 5.287 14.425M5.287 10.482V10.121L5.346 10.181ZM5.287 5.098V8.4C4.866 7.299 4.807 6.179 5.287 5.097M5.287 10.121C4.626 9.501 4.166 8.44 4.065 6.919 4.065 6.618 3.965 6.438 3.805 6.378V13.684C4.246 13.985 4.726 14.244 5.287 14.425V13.504A7 7 0 0 1 5.106 12.204 6.2 6.2 0 0 1 5.287 10.482ZM5.287 15.265V18.708C4.786 18.548 4.286 18.247 3.805 17.847V14.665C4.326 14.985 4.807 15.185 5.287 15.265M3.806 6.378V13.684C2.725 12.904 2.044 11.743 2.004 10.001 1.945 8.6 2.505 7.479 3.265 6.659 3.486 6.418 3.666 6.338 3.806 6.378M3.806 14.665A7 7 0 0 1 2.785 13.865C2.365 13.484 2.004 13.564 2.024 14.244 2.044 15.366 2.425 16.546 3.446 17.527 3.565 17.648 3.686 17.748 3.806 17.848Z" fill="#44739e"/></svg>
